images/icons/search.svg

<svg width="20" height="20" viewBox="0 0 20 20" fill="none" xmlns="http://www.w3.org/2000/svg">
<path d="M19.5 18.0083L15.8 14.3287C16.8 13.0359 17.5 11.3453 17.5 9.4558C17.5 5.08011 13.9 1.5 9.5 1.5C5.1 1.5 1.5 5.17956 1.5 9.55525C1.5 13.9309 5.1 17.511 9.5 17.511C11.3 17.511 13 16.9144 14.4 15.8204L18.1 19.5L19.5 18.0083ZM9.5 15.5221C6.2 15.5221 3.5 12.837 3.5 9.55525C3.5 6.27348 6.2 3.5884 9.5 3.5884C12.8 3.5884 15.5 6.27348 15.5 9.55525C15.5 12.837 12.8 15.5221 9.5 15.5221Z" fill="black"/>
</svg>

<svg width="20" height="20" viewBox="0 0 20 20" fill="none" xmlns="http://www.w3.org/2000/svg"><path d="m19.5 18-3.7-3.67a8 8 0 0 0 1.7-4.87 8 8 0 0 0-8-7.96c-4.4 0-8 3.68-8 8.06a8 8 0 0 0 12.9 6.26l3.7 3.68 1.4-1.5Zm-10-2.48a6 6 0 0 1-6-5.96 6 6 0 0 1 12 0 6 6 0 0 1-6 5.96Z" fill="#000"/></svg>
